X:186
T:Barry's Delight. JJo.186
B:J.Johnson Choice Collection Vol 8 1758
Z:vmp.Simon Wilson 2013 www.village-music-project.org.uk
Z:Dance added by John Chambers 2017
M:2/4
L:1/8
%Q:1/2=80
K:D
|:\
D2((3FGA) | BGAF | D2((3FGA) | BGEd |\
D2((3FGA) | BGAg | fdec | dAFA :|
|:\
{g}fedf | gfeg | eAgA | fAbA |\
{g}fedf | gfeg | fdec | dAFA :|
%%begintext align
%% Turn Right hands and cast
%% off one Cu. .| turn Right hand
%% and cast off another Cu. ..| Lead
%% to the top and cast off .| Right
%% and Left at top ..|
%%endtext
